docs/custom_svgs/wall-flood.svg

<svg viewBox="0 0 24 24" height="24px" width="24px" fill="#44739e" xmlns="http://www.w3.org/2000/svg"><title>hue:wall-flood</title><desc>Source: https://github.com/arallsopp/hass-hue-icons</desc><path d="m 6.7594968,4.0769594 c -0.8647624,-0.00299 -1.2923207,0.771954 -1.3378906,0.972656 -0.052079,0.229374 -0.7910157,3.369141 -0.7910157,3.369141 L 4.3688718,8.3406314 c -0.489466,-0.146841 -0.7636719,-0.027344 -0.7636719,-0.027344 0,0 -1.4215279,0.448484 -1.7636719,0.580078 -0.342141,0.131593 -0.3945312,0.578125 -0.3945312,0.578125 V 18.42071 c 0,0.57901 0.6054687,0.630859 0.6054687,0.630859 l 7.6582029,0.527344 c 0,0 0.9211806,-0.159519 1.6054686,-0.34375 0.684289,-0.184231 0.630859,-0.761719 0.630859,-0.761719 0,0 5.869376,0.500094 6.527344,0.552734 0.657969,0.05264 1.052734,-0.84375 1.052734,-0.84375 0,0 2.631441,-7.631868 2.947266,-8.7109376 0.315825,-1.079068 -0.5,-1.447265 -0.5,-1.447265 0,0 -13.6846997,-3.605026 -14.8164057,-3.894531 -0.1414633,-0.036189 -0.2749,-0.052308 -0.3984375,-0.052735 z m 2.1816406,1.996094 12.1757806,2.951172 c 0,0 0.21079,0.188087 0.25586,0.314453 0.05823,0.163241 0,0.519531 0,0.519531 l -2.613282,7.4765626 c -0.214559,0.330481 -0.40539,0.620222 -0.826172,0.654297 -0.232969,-0.0014 -11.6328116,-1.484375 -11.6328116,-1.484375 0,0 -0.4136858,-0.03294 -0.5800781,-0.330078 -0.2040607,-0.364405 -0.070312,-0.683594 -0.070312,-0.683594 L 7.9176999,6.7253974 c 0,0 0.1613906,-0.380889 0.3261719,-0.494141 0.1946648,-0.133788 0.6972656,-0.158203 0.6972656,-0.158203 z"/></svg>

<svg viewBox="0 0 24 24" height="24px" width="24px" fill="#44739e" xmlns="http://www.w3.org/2000/svg"><title>hue:wall-flood</title><desc>Source: https://github.com/arallsopp/hass-hue-icons</desc><path d="M6.76,4.08c-0.86,0-1.29,0.77-1.34,0.97C5.37,5.28,4.63,8.42,4.63,8.42L4.37,8.34 C3.88,8.19,3.61,8.31,3.61,8.31S2.18,8.76,1.84,8.89C1.5,9.02,1.45,9.47,1.45,9.47v8.95c0,0.58,0.61,0.63,0.61,0.63l7.66,0.53 c0,0,0.92-0.16,1.61-0.34c0.68-0.18,0.63-0.76,0.63-0.76s5.87,0.5,6.53,0.55s1.05-0.84,1.05-0.84s2.63-7.63,2.95-8.71 s-0.5-1.45-0.5-1.45S8.29,4.42,7.16,4.13C7.02,4.09,6.88,4.08,6.76,4.08z M8.94,6.07l12.18,2.95c0,0,0.21,0.19,0.26,0.31 c0.06,0.16,0,0.52,0,0.52l-2.61,7.48c-0.21,0.33-0.41,0.62-0.83,0.65C17.7,17.99,6.3,16.5,6.3,16.5s-0.41-0.03-0.58-0.33 c-0.2-0.36-0.07-0.68-0.07-0.68l2.27-8.77c0,0,0.16-0.38,0.33-0.49C8.44,6.1,8.94,6.07,8.94,6.07z"/></svg>
